polaris-icons/icons/new-icons/ReferralMajor.svg

<svg width="20" height="20" viewBox="0 0 20 20" fill="none" xmlns="http://www.w3.org/2000/svg">
<path d="M4.5 8.75C4.5 6.95507 5.95507 5.5 7.75 5.5H11.5C11.9142 5.5 12.25 5.16421 12.25 4.75C12.25 4.33579 11.9142 4 11.5 4H7.75C5.12665 4 3 6.12665 3 8.75V9.5C3 11.5997 4.36171 13.38 6.25 14.0081V16C6.25 16.2832 6.40957 16.5423 6.66252 16.6698C6.91547 16.7972 7.21864 16.7713 7.44628 16.6028L10.6241 14.25H12.25C14.8734 14.25 17 12.1234 17 9.5C17 9.08579 16.6642 8.75 16.25 8.75C15.8358 8.75 15.5 9.08579 15.5 9.5C15.5 11.2949 14.0449 12.75 12.25 12.75H10.3766C10.2159 12.75 10.0595 12.8016 9.93034 12.8972L7.75 14.5115V13.4298C7.75 13.0695 7.49378 12.7601 7.13978 12.6929C5.63655 12.4078 4.5 11.0858 4.5 9.5V8.75Z" fill="#4A4A4A"/>
<path d="M13.75 4C13.3358 4 13 4.33579 13 4.75C13 5.16421 13.3358 5.5 13.75 5.5L14.4393 5.5L11.2197 8.71967C10.9268 9.01256 10.9268 9.48744 11.2197 9.78033C11.5126 10.0732 11.9874 10.0732 12.2803 9.78033L15.5 6.56066L15.5 7.25C15.5 7.66421 15.8358 8 16.25 8C16.6642 8 17 7.66421 17 7.25L17 4.75C17 4.33579 16.6642 4 16.25 4H13.75Z" fill="#4A4A4A"/>
</svg>

<svg viewBox="0 0 20 20" xmlns="http://www.w3.org/2000/svg"><path d="M4.5 8.75a3.25 3.25 0 0 1 3.25-3.25h3.75a.75.75 0 0 0 0-1.5h-3.75a4.75 4.75 0 0 0-4.75 4.75v.75c0 2.1 1.362 3.88 3.25 4.508v1.992a.75.75 0 0 0 1.196.603l3.178-2.353h1.626a4.75 4.75 0 0 0 4.75-4.75.75.75 0 0 0-1.5 0 3.25 3.25 0 0 1-3.25 3.25h-1.873a.75.75 0 0 0-.447.147l-2.18 1.614v-1.081a.75.75 0 0 0-.61-.737 3.251 3.251 0 0 1-2.64-3.193v-.75Z" fill="#5C5F62"/><path d="M13.75 4a.75.75 0 0 0 0 1.5h.69l-3.22 3.22a.75.75 0 0 0 1.06 1.06l3.22-3.22v.69a.75.75 0 0 0 1.5 0v-2.5a.75.75 0 0 0-.75-.75h-2.5Z" fill="#5C5F62"/></svg>
